Numix-Light-GalliumOS/scalable/categories/preferences-other-symbolic.svg

<?xml version="1.0" encoding="UTF-8" standalone="no"?>
<svg
   xmlns:dc="http://purl.org/dc/elements/1.1/"
   xmlns:cc="http://creativecommons.org/ns#"
   xmlns:rdf="http://www.w3.org/1999/02/22-rdf-syntax-ns#"
   xmlns:svg="http://www.w3.org/2000/svg"
   xmlns="http://www.w3.org/2000/svg"
   xmlns:sodipodi="http://sodipodi.sourceforge.net/DTD/sodipodi-0.dtd"
   xmlns:inkscape="http://www.inkscape.org/namespaces/inkscape"
   viewBox="0 0 16 16"
   id="svg2"
   version="1.1"
   inkscape:version="0.48.4 r9939"
   width="100%"
   height="100%"
   sodipodi:docname="preferences-other-symbolic.svg">
  <metadata
     id="metadata24">
    <rdf:RDF>
      <cc:Work
         rdf:about="">
        <dc:format>image/svg+xml</dc:format>
        <dc:type
           rdf:resource="http://purl.org/dc/dcmitype/StillImage" />
      </cc:Work>
    </rdf:RDF>
  </metadata>
  <defs
     id="defs22" />
  <sodipodi:namedview
     pagecolor="#ffffff"
     bordercolor="#666666"
     borderopacity="1"
     objecttolerance="10"
     gridtolerance="10"
     guidetolerance="10"
     inkscape:pageopacity="0"
     inkscape:pageshadow="2"
     inkscape:window-width="1301"
     inkscape:window-height="744"
     id="namedview20"
     showgrid="true"
     inkscape:zoom="35.261719"
     inkscape:cx="8.0567187"
     inkscape:cy="8"
     inkscape:window-x="65"
     inkscape:window-y="24"
     inkscape:window-maximized="1"
     inkscape:current-layer="svg2">
    <inkscape:grid
       type="xygrid"
       id="grid3001" />
  </sodipodi:namedview>
  <rect
     style="fill:#353535"
     id="rect6"
     height="6.9999886"
     rx="0"
     y="8.0000114"
     x="3.0000002"
     width="10" />
  <rect
     style="fill:#353535"
     id="rect8"
     transform="matrix(0.79988838,-0.60014879,0.60014879,0.79988838,0,0)"
     height="0.73737049"
     rx="0"
     y="8.2037992"
     x="-5.7652297"
     width="3.377877" />
  <rect
     style="fill:#353535"
     id="rect10"
     transform="matrix(0.79988839,0.60014879,0.60014879,-0.79988839,0,0)"
     height="0.73737049"
     rx="0"
     y="0.67831641"
     x="15.208297"
     width="3.377877" />
  <rect
     style="fill:#353535"
     id="rect12"
     transform="matrix(0.95334222,0.30189172,-0.30189172,0.95334222,0,0)"
     height="1.7583122"
     y="3.2350197"
     x="4.9857416"
     width="1.7583122" />
  <rect
     style="fill:#353535"
     id="rect14"
     transform="matrix(0.95988029,-0.2804101,0.2804101,0.95988029,0,0)"
     height="2.890713"
     y="2.8234441"
     x="4.3571963"
     width="2.890713" />
  <path
     style="fill:#353535"
     inkscape:connector-curvature="0"
     id="path16"
     d="M 10.391372,5.9534632 9.5637697,7.0078018 8.2368847,6.8182468 7.7376017,5.5743532 8.5652038,4.5200145 l 1.326885,0.189555 z" />
  <path
     style="fill:#353535"
     inkscape:connector-curvature="0"
     id="path18"
     d="M 12.808198,3.3470819 11.962341,3.624165 11.711065,4.4780451 11.186159,3.7592104 10.296423,3.7840952 10.81787,3.0627475 10.519258,2.2242483 l 0.847179,0.2730175 0.705184,-0.5431078 0.0021,0.8900818 z" />
</svg>

<svg xmlns="http://www.w3.org/2000/svg" viewBox="0 0 16 16">
 <rect height="7" rx="0" y="8" x="3" width="10" style="fill:#353535"/>
 <rect transform="matrix(0.79988838,-0.60014879,0.60014879,0.79988838,0,0)" height="0.737" rx="0" y="8.204" x="-5.765" width="3.378" style="fill:#353535"/>
 <rect transform="matrix(0.79988839,0.60014879,0.60014879,-0.79988839,0,0)" height="0.737" rx="0" y="0.678" x="15.208" width="3.378" style="fill:#353535"/>
 <rect transform="matrix(0.95334222,0.30189172,-0.30189172,0.95334222,0,0)" height="1.758" y="3.235" x="4.986" width="1.758" style="fill:#353535"/>
 <rect transform="matrix(0.95988029,-0.2804101,0.2804101,0.95988029,0,0)" height="2.891" y="2.823" x="4.357" width="2.891" style="fill:#353535"/>
 <path d="m 10.391 5.953 -0.828 1.054 -1.327 -0.19 -0.499 -1.244 0.828 -1.054 l 1.327 0.19 z" style="fill:#353535"/>
 <path d="m 12.808 3.347 -0.846 0.277 -0.251 0.854 -0.525 -0.719 -0.89 0.025 0.521 -0.721 -0.299 -0.838 l 0.847 0.273 0.705 -0.543 0.002 0.89 z" style="fill:#353535"/>
</svg>
